X: 2
T:Jocko's Carvatt. HA.003
T:Jenny Come Tie My Cravatt,aka. HA.003
M:6/4
L:1/8
Q:300
C:Jenny Come Tie My Cravatt,aka
S:Henry Atkinson's original MS,Hartburn,N'umberland,1694.
O:England
A:Hartburn,Northumberland
N:Bars 2 & 4 of the B strain might be open to rhythmical
N:interpretation!.cf Playford eds 7A(1687) onwards.Also Apollo's
N:Banquet,1687..CGP
H:1/8
Z:vmp.Chris Partington.Jan.2004
K:C
A2|(F2D2)F2 (A2F2)A2|(E2C2)E2 G4E2|\
(F2D2)F2 (A2F2)A2|(f2g2a2) f2d4|!
|e2|(fg)a2f2 (ef)g2f2|"qu's"(e2c2)e2 g4e2|\
(fg)a2f2 (ef)g2f2|"qu's"(c2A2)c2 d4|]
W:qu=2 quavers in MS.
